X:1
T: Lord Moira's Welcome
C:
R:Strathspey
Q: 128
K:F
M:4/4
L:1/16
|:FF3 F3G Ac3 c4|B3G A3F G3F EC3|FF3 F3G Ac3 c4|defd efge f3e fa3|
FF3 F3G Ac3 c4|B3G A3F G3F EC3|FF3 F3G Ac3 c4|defd efge f3e fa3|
ff3 a3f g3f ec3|dd3 f3d c3B AF3|ff3 a3f g3f ec3|defd efge f4 f2ga|
b3g a3f g3f d3f|c3A f3c BAGF G3A|FA3 GB3 Ac3 Bd3|c3f agfe gfed cBAG:|
